assets/icons/24px/internet-browser.svg

<svg width="25" height="24" viewBox="0 0 25 24" fill="none" xmlns="http://www.w3.org/2000/svg">
<g clip-path="url(#clip0_448_1803)">
<circle cx="12.6667" cy="12" r="9" stroke="white" stroke-width="2"/>
<path fill-rule="evenodd" clip-rule="evenodd" d="M12.0562 10.6487C11.7597 10.8405 11.5072 11.093 11.3154 11.3895L8.35259 15.9684C8.2062 16.1946 8.47206 16.4605 8.6983 16.3141L13.2772 13.3513C13.5737 13.1594 13.8261 12.907 14.018 12.6105L16.9808 8.0316C17.1272 7.80536 16.8613 7.53951 16.6351 7.6859L12.0562 10.6487ZM11.6667 13C12.2189 13.5523 13.1144 13.5523 13.6666 13C14.2189 12.4477 14.2189 11.5523 13.6666 11C13.1144 10.4477 12.2189 10.4477 11.6667 11C11.1144 11.5523 11.1144 12.4477 11.6667 13Z" fill="white"/>
<path d="M11.3154 11.3895L10.8956 11.1179L10.8956 11.1179L11.3154 11.3895ZM12.0562 10.6487L11.7846 10.2289L11.7846 10.2289L12.0562 10.6487ZM8.35259 15.9684L7.93281 15.6967L7.93281 15.6967L8.35259 15.9684ZM8.6983 16.3141L8.96992 16.7339L8.96992 16.7339L8.6983 16.3141ZM13.2772 13.3513L13.0055 12.9315L13.0055 12.9315L13.2772 13.3513ZM14.018 12.6105L13.5982 12.3388L13.5982 12.3388L14.018 12.6105ZM16.9808 8.0316L16.561 7.75998L16.561 7.75998L16.9808 8.0316ZM16.6351 7.6859L16.3634 7.26611L16.3634 7.26611L16.6351 7.6859ZM11.7352 11.6611C11.8886 11.4239 12.0906 11.222 12.3278 11.0685L11.7846 10.2289C11.4288 10.4591 11.1258 10.7621 10.8956 11.1179L11.7352 11.6611ZM8.77238 16.24L11.7352 11.6611L10.8956 11.1179L7.93281 15.6967L8.77238 16.24ZM8.42667 15.8943C8.65292 15.7479 8.91877 16.0137 8.77238 16.24L7.93281 15.6967C7.49364 16.3755 8.2912 17.173 8.96992 16.7339L8.42667 15.8943ZM13.0055 12.9315L8.42667 15.8943L8.96992 16.7339L13.5488 13.7711L13.0055 12.9315ZM13.5982 12.3388C13.4447 12.576 13.2427 12.778 13.0055 12.9315L13.5488 13.7711C13.9046 13.5408 14.2075 13.2379 14.4378 12.8821L13.5982 12.3388ZM16.561 7.75998L13.5982 12.3388L14.4378 12.8821L17.4006 8.30323L16.561 7.75998ZM16.9067 8.10568C16.6804 8.25207 16.4146 7.98622 16.561 7.75998L17.4006 8.30323C17.8397 7.6245 17.0422 6.82694 16.3634 7.26611L16.9067 8.10568ZM12.3278 11.0685L16.9067 8.10568L16.3634 7.26611L11.7846 10.2289L12.3278 11.0685ZM13.3131 12.6465C12.9561 13.0035 12.3772 13.0035 12.0202 12.6465L11.3131 13.3536C12.0607 14.1011 13.2727 14.1011 14.0202 13.3536L13.3131 12.6465ZM13.3131 11.3536C13.6701 11.7106 13.6701 12.2894 13.3131 12.6465L14.0202 13.3536C14.7677 12.606 14.7677 11.394 14.0202 10.6465L13.3131 11.3536ZM12.0202 11.3536C12.3772 10.9966 12.9561 10.9966 13.3131 11.3536L14.0202 10.6465C13.2727 9.89893 12.0607 9.89893 11.3131 10.6465L12.0202 11.3536ZM12.0202 12.6465C11.6632 12.2894 11.6632 11.7106 12.0202 11.3536L11.3131 10.6465C10.5656 11.394 10.5656 12.606 11.3131 13.3536L12.0202 12.6465Z" fill="white"/>
</g>
<defs>
<clipPath id="clip0_448_1803">
<rect width="24" height="24" fill="white" transform="translate(0.666656)"/>
</clipPath>
</defs>
</svg>

<svg width="25" height="24" fill="none" xmlns="http://www.w3.org/2000/svg"><g clip-path="url(#clip0_448_1803)"><circle cx="12.667" cy="12" r="9" stroke="#fff" stroke-width="2"/><path fill-rule="evenodd" clip-rule="evenodd" d="M12.056 10.649a2.499 2.499 0 0 0-.74.74l-2.963 4.58c-.147.226.12.492.345.345l4.58-2.963c.296-.192.548-.444.74-.74l2.963-4.58c.146-.226-.12-.491-.346-.345l-4.579 2.963zM11.666 13a1.414 1.414 0 1 0 2-2 1.414 1.414 0 0 0-2 2z" fill="#fff"/><path d="M11.315 11.39l-.42-.272.42.271zm.741-.741l-.271-.42.271.42zm-3.703 5.32l-.42-.272.42.271zm.345.345l.272.42-.272-.42zm4.58-2.963l-.273-.42.272.42zm.74-.74l-.42-.272.42.271zm2.963-4.58l-.42-.271.42.272zm-.346-.345l-.272-.42.272.42zm-4.9 3.975c.154-.237.356-.439.593-.592l-.543-.84a3 3 0 0 0-.89.889l.84.543zM8.772 16.24l2.963-4.579-.84-.543-2.962 4.579.84.543zm-.345-.346c.226-.146.492.12.345.346l-.84-.543c-.438.678.36 1.476 1.038 1.037l-.543-.84zm4.579-2.963l-4.58 2.963.544.84 4.579-2.963-.543-.84zm.592-.592a2 2 0 0 1-.593.592l.544.84c.356-.23.659-.533.889-.889l-.84-.543zm2.963-4.579l-2.963 4.579.84.543L17.4 8.303l-.84-.543zm.346.346c-.227.146-.492-.12-.346-.346l.84.543c.439-.679-.359-1.476-1.038-1.037l.544.84zm-4.58 2.963l4.58-2.963-.544-.84-4.578 2.963.543.84zm.986 1.577a.914.914 0 0 1-1.293 0l-.707.708c.748.747 1.96.747 2.707 0l-.707-.707zm0-1.292a.914.914 0 0 1 0 1.293l.707.707a1.914 1.914 0 0 0 0-2.707l-.707.707zm-1.293 0a.914.914 0 0 1 1.293 0l.707-.707a1.914 1.914 0 0 0-2.707 0l.707.707zm0 1.293a.914.914 0 0 1 0-1.293l-.707-.707a1.914 1.914 0 0 0 0 2.707l.707-.707z" fill="#fff"/></g><defs><clipPath id="clip0_448_1803"><path fill="#fff" transform="translate(.667)" d="M0 0H24V24H0z"/></clipPath></defs></svg>
